X:4385
T:Drogheda Lasses, The
T:Mary of the Grove
T:Eddie Moloney's Favourite
T:Paddy Doorhy's
R:reel
D:Frankie Gavin & Alec Finn
D:Altan: Harvest Storm
Z:id:hn-reel-536
M:C|
K:Edor
B2GB EBGB|A2FA DAFA|B2GB EBGA|(3Bcd ef gfed|
B2GB dBGB|A2FA dAFA|BAGF EFGA|(3Bcd ed Bdef||
~g3f gfed|~B3A (3Bcd ef|g2ef gefd|(3Bcd AF GE~E2|
~g3a gfed|B2AB GBFB|~E3F GFGA|(3Bcd ef gfed||
